!!!OTL: Der Vorwirt
!!!OTL-incipit:Es wollt' ein Herr ausreiten,
!!!ARE: Europa, Mitteleuropa, Deutschland / France, Lothringen
!!!YOR: 5, S. 16
!!    1926 gedruckt in Heidelberg
!!!SCT: Q0089H
!!!TXL: @@DE
!!!YEM: Copyright 1995, estate of Helmut Schaffrath.
**kern	**text
*ICvox	*
!! Irregular meter.
*MX	*
*k[f#]	*
*G:	*
!LO:TX:a:t=11 Lothringen	!
{4d	Es
2g	wollt'
4g	ein
=1	=1
(4g	Herr
4a)	.
4b	aus-
(<2b	-rei-
8aL	.
8bJ)	.
=2	=2
2.g}	-ten,
{4g	ge-
4f#	-gen
4e	den
=3	=3
2d	Him-
4d	-mel
(4g	wollt'
4f#)	.
4g	er
=4	=4
(2a	strei-
4b)	.
2.g}	-ten.
{4g	Er
4g	rei-
4f#	-tet
4e	wohl
=5	=5
4d	ü-
4d	-ber
4g	den
4cc	brei-
4b	-ten
4a	Kirch-
2b}	-hof
{4a	da
=6	=6
(4g	strau-
4f#)	.
4e	-chelt
2d	ihm
4g	sein
2b	ho-
4a	-hes
=7	=7
2g}	Roß.
==	==
!!!AGN: Ballade, Mord, Grab, Auferstehen, Geist
!!!ONB: ESAC (Essen Associative Code) Database: BALLADE
!!!AMT: irregular
!!!AIN: vox
!!!EED: Helmut Schaffrath
!!!EEV: 1.0
!!!source: Deutsche Volkslieder mit ihren Melodien Balladen. Herausgegeben vom Deutschen Volksliedarchiv. Fünfter Teil. Freiburg/Breisgau 1965.
!!!page: 16
!!!ENC: Anna Maria Matuszewska
!!!EEV: 2025/02/27
*-	*-
